src/assets/outline/Wallet1.svg

<svg width="24" height="24" viewBox="0 0 24 24"  xmlns="http://www.w3.org/2000/svg">
<path d="M17 22.75H7C3.56 22.75 1.25 20.44 1.25 17V12C1.25 8.92 3.15 6.69001 6.1 6.32001C6.38 6.28001 6.69 6.25 7 6.25H17C17.24 6.25 17.55 6.26 17.87 6.31C20.82 6.65 22.75 8.89 22.75 12V17C22.75 20.44 20.44 22.75 17 22.75ZM7 7.75C6.76 7.75 6.53 7.76999 6.3 7.79999C4.1 8.07999 2.75 9.68 2.75 12V17C2.75 19.58 4.42 21.25 7 21.25H17C19.58 21.25 21.25 19.58 21.25 17V12C21.25 9.66 19.88 8.05001 17.66 7.79001C17.42 7.75001 17.21 7.75 17 7.75H7Z" />
<path d="M6.19005 7.81001C5.95005 7.81001 5.73005 7.70001 5.58005 7.50001C5.41005 7.27001 5.39005 6.97001 5.52005 6.72001C5.69005 6.38001 5.93005 6.05001 6.24005 5.75001L9.49005 2.49C11.15 0.840002 13.85 0.840002 15.51 2.49L17.26 4.26002C18 4.99002 18.45 5.97002 18.5 7.01002C18.51 7.24002 18.42 7.46 18.25 7.61C18.08 7.76 17.85 7.83002 17.63 7.79002C17.43 7.76002 17.22 7.75001 17 7.75001H7.00005C6.76005 7.75001 6.53005 7.77 6.30005 7.8C6.27005 7.81 6.23005 7.81001 6.19005 7.81001ZM7.86005 6.25001H16.82C16.69 5.91001 16.48 5.60002 16.2 5.32002L14.44 3.54002C13.37 2.48002 11.62 2.48002 10.54 3.54002L7.86005 6.25001Z" />
<path d="M22 17.25H19C17.48 17.25 16.25 16.02 16.25 14.5C16.25 12.98 17.48 11.75 19 11.75H22C22.41 11.75 22.75 12.09 22.75 12.5C22.75 12.91 22.41 13.25 22 13.25H19C18.31 13.25 17.75 13.81 17.75 14.5C17.75 15.19 18.31 15.75 19 15.75H22C22.41 15.75 22.75 16.09 22.75 16.5C22.75 16.91 22.41 17.25 22 17.25Z" />
</svg>

<?xml version="1.0" encoding="UTF-8"?>
<svg width="24" height="24" viewBox="0 0 24 24" xmlns="http://www.w3.org/2000/svg">
 <path d="m17 22.75h-10c-3.44 0-5.75-2.31-5.75-5.75v-5c0-3.08 1.9-5.31 4.85-5.68 0.28-0.04 0.59-0.07001 0.9-0.07001h10c0.24 0 0.55 0.01 0.87 0.06 2.95 0.34 4.88 2.58 4.88 5.69v5c0 3.44-2.31 5.75-5.75 5.75zm-10-15c-0.24 0-0.47 0.01999-0.7 0.04999-2.2 0.28-3.55 1.88-3.55 4.2v5c0 2.58 1.67 4.25 4.25 4.25h10c2.58 0 4.25-1.67 4.25-4.25v-5c0-2.34-1.37-3.95-3.59-4.21-0.24-0.04-0.45-0.04001-0.66-0.04001h-10z"/>
 <path d="m6.19 7.81c-0.24 0-0.46-0.11-0.61-0.31-0.17-0.23-0.19-0.53-0.06-0.78 0.17-0.34 0.41-0.67 0.72-0.97l3.25-3.26c1.66-1.65 4.36-1.65 6.02 0l1.75 1.77c0.74 0.73 1.19 1.71 1.24 2.75 0.01 0.23-0.08 0.44998-0.25 0.59998s-0.4 0.22002-0.62 0.18002c-0.2-0.03-0.41-0.04001-0.63-0.04001h-10c-0.24 0-0.47 0.01999-0.7 0.04999-0.03 0.01-0.07 0.01001-0.11 0.01001zm1.67-1.56h8.96c-0.13-0.34-0.34-0.64999-0.62-0.92999l-1.76-1.78c-1.07-1.06-2.82-1.06-3.9 0l-2.68 2.71z"/>
 <path d="m22 17.25h-3c-1.52 0-2.75-1.23-2.75-2.75s1.23-2.75 2.75-2.75h3c0.41 0 0.75 0.34 0.75 0.75s-0.34 0.75-0.75 0.75h-3c-0.69 0-1.25 0.56-1.25 1.25s0.56 1.25 1.25 1.25h3c0.41 0 0.75 0.34 0.75 0.75s-0.34 0.75-0.75 0.75z"/>
</svg>
